X:152
T:The lady on the island
R:Reel
O:Ireland
D:Chieftains 3 (?)
D:Mary Bergin- Traditional Irish Music- Shanachie (?)
B:Fiddler's Fakebook (Same vsn.)
S:Richard Darsie's web page
Z:Transcription, chords:Mike Long
M:C|
L:1/8
K:D
"D"BAFB "A"AFEF|"D"D2FA "G"BAdA|"D"BAFB "A"AFAB|"G"d2fd eddB|\
"D"BAFB "A"AFEF|
"D"D2FA "G"BAdA|"D"BAFB "A"AFAB|"G"d2fd eABc|]\
"D"defd "A"efge|"D"afdf "G"eB~B2|"D"defd "A"efge|
"D"afdf "A"eABc|"D"defd "A"efge|"D"afdf "G"eB~B2|"D"defg afbf|"A"afdf "G"eBdB|]
